symbols-de/shields/motorway_6x4.svg

<?xml version="1.0" encoding="UTF-8" standalone="no"?>
<svg
   xmlns:dc="http://purl.org/dc/elements/1.1/"
   xmlns:cc="http://creativecommons.org/ns#"
   xmlns:rdf="http://www.w3.org/1999/02/22-rdf-syntax-ns#"
   xmlns:svg="http://www.w3.org/2000/svg"
   xmlns="http://www.w3.org/2000/svg"
   xmlns:sodipodi="http://sodipodi.sourceforge.net/DTD/sodipodi-0.dtd"
   xmlns:inkscape="http://www.inkscape.org/namespaces/inkscape"
   width="100%"
   height="100%"
   viewBox="0 0 45.0 42.0"
   id="svg2"
   version="1.1"
   inkscape:version="0.91 r13725"
   sodipodi:docname="autobahn_6x4.svg">
  <metadata
     id="metadata9">
    <rdf:RDF>
      <cc:Work
         rdf:about="">
        <dc:format>image/svg+xml</dc:format>
        <dc:type
           rdf:resource="http://purl.org/dc/dcmitype/StillImage" />
        <dc:title></dc:title>
      </cc:Work>
    </rdf:RDF>
  </metadata>
  <defs
     id="defs7" />
  <sodipodi:namedview
     pagecolor="#ffffff"
     bordercolor="#666666"
     borderopacity="1"
     objecttolerance="10"
     gridtolerance="10"
     guidetolerance="10"
     inkscape:pageopacity="0"
     inkscape:pageshadow="2"
     inkscape:window-width="1117"
     inkscape:window-height="685"
     id="namedview5"
     showgrid="false"
     inkscape:zoom="5.6190476"
     inkscape:cx="22.5"
     inkscape:cy="21"
     inkscape:window-x="367"
     inkscape:window-y="223"
     inkscape:window-maximized="0"
     inkscape:current-layer="svg2" />
  <path
     style="fill:#365eaf;fill-opacity:1;stroke:#0528a2;stroke-width:1;stroke-miterlimit:4;stroke-dasharray:none;stroke-opacity:1"
     d="m 22.5,0.49999929 c -0.315411,0 -0.472656,0.0033 -0.472656,0.01172 L 1.2106372,2.2812493 C 0.73751877,2.3660993 0.5,2.4943613 0.5,2.6640613 c 0,12.2239587 0,24.4479167 0,36.6718747 0,0.1697 0.23751877,0.297965 0.7106372,0.382813 L 22.027344,41.48828 c 0,0.0085 0.157249,0.01172 0.472656,0.01172 0.315412,0 0.472657,-0.0033 0.472657,-0.01172 L 43.789363,39.718749 C 44.262483,39.633899 44.5,39.505636 44.5,39.335936 c 0,-12.223957 0,-24.447917 0,-36.6718747 0,-0.1697 -0.237517,-0.297964 -0.710637,-0.382812 L 22.972657,0.51171729 c 0,-0.0085 -0.15725,-0.01172 -0.472657,-0.01172 z"
     id="path6"
     inkscape:connector-curvature="0"
     sodipodi:nodetypes="sccccccsccccccs" />
</svg>

<?xml version="1.0" encoding="UTF-8"?>
<svg xmlns="http://www.w3.org/2000/svg" xmlns:xlink="http://www.w3.org/1999/xlink" width="47pt" height="54pt" viewBox="0 0 47 54" version="1.1">
<g id="surface1">
<path style="fill-rule:nonzero;fill:rgb(21.176471%,36.862745%,68.627451%);fill-opacity:1;stroke-width:1;stroke-linecap:butt;stroke-linejoin:miter;stroke:rgb(1.960784%,15.686275%,63.529412%);stroke-opacity:1;stroke-miterlimit:4;" d="M 22.5 0.501302 C 22.185838 0.501302 22.028757 0.50434 22.028757 0.510417 L 1.211769 2.281684 C 0.736785 2.366753 0.501164 2.494358 0.501164 2.664497 C 0.501164 14.887153 0.501164 27.112847 0.501164 39.335503 C 0.501164 39.505642 0.736785 39.633247 1.211769 39.718316 L 22.028757 41.489583 C 22.028757 41.49566 22.185838 41.498698 22.5 41.498698 C 22.814162 41.498698 22.971243 41.49566 22.971243 41.489583 L 43.788231 39.718316 C 44.263215 39.633247 44.498836 39.505642 44.498836 39.335503 C 44.498836 27.112847 44.498836 14.887153 44.498836 2.664497 C 44.498836 2.494358 44.263215 2.366753 43.788231 2.281684 L 22.971243 0.510417 C 22.971243 0.50434 22.814162 0.501302 22.5 0.501302 Z M 22.5 0.501302 " transform="matrix(1.044444,0,0,1.285714,0,0)"/>
</g>
</svg>
